; generated by PrusaSlicer 2.9.3 on 2025-10-17 at 16:05:56 UTC


;
;

;
;

;
;

;
;
; 

; external perimeters extrusion width = 0.45mm
; perimeters extrusion width = 0.45mm
; infill extrusion width = 0.45mm
; solid infill extrusion width = 0.45mm
; top infill extrusion width = 0.40mm
; first layer extrusion width = 0.42mm

M73 P0 R90
M73 Q0 S90
M201 X2500 Y2500 Z400 E5000 ; sets maximum accelerations, mm/sec^2
M203 X180 Y180 Z12 E80 ; sets maximum feedrates, mm / sec
M204 P2000 R1250 T2500 ; sets acceleration (P, T) and retract acceleration (R), mm/sec^2
M205 X8.00 Y8.00 Z2.00 E10.00 ; sets the jerk limits, mm/sec
M205 S0 T0 ; sets the minimum extruding and travel feed rate, mm/sec

M486 S0
M486 Acoupler_2
M486 S-1

;TYPE:Custom
M862.3 P "MINI" ; printer model check
G90 ; use absolute coordinates
M83 ; extruder relative mode
M104 S170 ; set extruder temp for bed leveling
M140 S60 ; set bed temp
M109 R170 ; wait for bed leveling temp
M190 S60 ; wait for bed temp
M204 T1250 ; set travel acceleration
G28 ; home all without mesh bed level
G29 ; mesh bed leveling 
M204 T2500 ; restore travel acceleration
M104 S215 ; set extruder temp
G92 E0
G1 Y-2 X179 F2400
G1 Z3 F720
M109 S215 ; wait for extruder temp

; intro line
G1 X170 F1000
G1 Z0.2 F720
G1 X110 E8 F900
G1 X40 E10 F700
G92 E0

M221 S95 ; set flow
G21 ; set units to millimeters
G90 ; use absolute coordinates
M83 ; use relative distances for extrusion

M900 K0.2 ; Filament gcode LA 1.5
; ; Filament gcode LA 1.0




M107
;LAYER_CHANGE
;Z:0.2
;HEIGHT:0.2
G1 E-3.2 F4200
G1 Z.4 F720
G1 X74.316 Y74.309 F9000
G1 Z.2 F720
G1 E3.2 F2400
M204 P600
;TYPE:Skirt/Brim
;WIDTH:0.42
G1 F1200
G3 X90.09 Y67.812 I15.684 J15.682 E.54904
G1 X92.249 Y67.926 E.06779
G3 X74.274 Y74.351 I-2.249 J22.065 E3.75077
M204 P1000
G1 E-2.24 F4200
;WIPE_START
G1 F7200
G1 X74.316 Y74.309 E-.03292
G3 X75.542 Y73.172 I15.685 J15.682 E-.92708
;WIPE_END
G1 Z.4 F720
M486 S0
G1 X89.805 Y86.731 F9000
G1 Z.2 F720
G1 E3.2 F2400
M204 P600
;TYPE:Perimeter
;WIDTH:0.419999
G1 F1200
G3 X91.201 Y86.94 I.182 J3.548 E.04455
G1 X91.743 Y87.216 E.01907
G3 X92.686 Y88.109 I-2.598 J3.687 E.04086
G3 X93.209 Y89.296 I-3.331 J2.175 E.04085
G3 X93.231 Y90.594 I-4.374 J.724 E.04085
G3 X91.837 Y92.723 I-3.338 J-.664 E.08178
G3 X90.639 Y93.222 I-2.309 J-3.856 E.04083
G3 X89.748 Y93.275 I-.967 J-8.727 E.028
G3 X88.041 Y92.636 I.349 J-3.535 E.0578
G1 X87.484 Y92.109 E.02404
G1 X87.108 Y91.559 E.02089
G3 X86.829 Y89.14 I3.046 J-1.578 E.07805
G1 X87.113 Y88.436 E.0238
G3 X88.499 Y87.078 I3.029 J1.706 E.06166
G1 X89.221 Y86.81 E.02415
G3 X89.745 Y86.735 I.766 J3.469 E.01661
M204 P1000
G1 X89.827 Y87.104 F9000
M204 P600
;TYPE:External perimeter
G1 F1200
G3 X91.07 Y87.294 I.158 J3.131 E.0397
G3 X92.675 Y88.856 I-1.162 J2.799 E.07193
G3 X91.629 Y92.406 I-2.705 J1.133 E.12558
G3 X90.536 Y92.859 I-2.032 J-3.359 E.03724
G1 X89.849 Y92.905 E.02159
G3 X88.732 Y92.618 I.302 J-3.499 E.03632
G3 X87.748 Y91.84 I1.656 J-3.106 E.03954
G3 X88.21 Y87.707 I2.281 J-1.837 E.14498
G3 X89.347 Y87.166 I2.062 J2.866 E.03969
G3 X89.767 Y87.107 I.638 J3.069 E.01331
M204 P1000
G1 E-2.24 F4200
;WIPE_START
G1 F7200
G1 X89.827 Y87.104 E-.03329
G3 X91.07 Y87.294 I.157 J3.131 E-.70159
G3 X91.434 Y87.474 I-1.162 J2.799 E-.22512
;WIPE_END
G1 Z.4 F720
G1 X89.846 Y71.573 F9000
G1 Z.2 F720
G1 E3.2 F2400
M204 P600
;TYPE:Perimeter
G1 F1200
G3 X91.31 Y71.908 I.117 J2.85 E.04765
G3 X92.406 Y73.059 I-1.414 J2.444 E.05052
G3 X92.341 Y75.561 I-2.466 J1.188 E.0815
G1 X92.003 Y76.035 E.01825
G3 X90.655 Y76.852 I-2.095 J-1.936 E.05007
G3 X87.842 Y75.851 I-.643 J-2.646 E.09909
G3 X87.348 Y73.83 I2.315 J-1.637 E.06679
G3 X88.308 Y72.168 I2.76 J.486 E.06142
G3 X89.769 Y71.577 I1.758 J2.246 E.05007
G3 X89.787 Y71.576 I.194 J2.846 E.00057
M204 P1000
G1 X89.868 Y71.95 F9000
M204 P600
;TYPE:External perimeter
G1 F1200
G3 X90.303 Y71.96 I.162 J2.403 E.01366
G3 X91.294 Y72.345 I-.778 J3.469 E.03346
G3 X92.241 Y73.69 I-1.332 J1.944 E.05269
G3 X92.034 Y75.342 I-2.357 J.544 E.05329
G3 X91.352 Y76.123 I-2.452 J-1.454 E.03269
G3 X90.524 Y76.498 I-1.644 J-2.523 E.02861
G3 X88.143 Y75.623 I-.51 J-2.288 E.08404
G3 X87.758 Y74.8 I2.504 J-1.672 E.0286
G3 X88.034 Y73.045 I2.338 J-.531 E.05706
G3 X88.576 Y72.433 I2.517 J1.682 E.02571
G3 X89.808 Y71.955 I1.454 J1.92 E.04197
M204 P1000
G1 E-2.24 F4200
;WIPE_START
G1 F7200
G1 X89.868 Y71.95 E-.03337
G3 X90.303 Y71.96 I.162 J2.403 E-.24146
G3 X91.294 Y72.345 I-.777 J3.469 E-.59139
G3 X91.43 Y72.446 I-1.332 J1.943 E-.09378
;WIPE_END
G1 Z.4 F720
G1 X104.246 Y87.784 F9000
G1 Z.2 F720
G1 E3.2 F2400
M204 P600
;TYPE:Perimeter
G1 F1200
G3 X104.603 Y87.575 I1.59 J2.3 E.01298
G3 X106.705 Y87.488 I1.157 J2.538 E.06764
G3 X108.213 Y88.937 I-1.043 J2.596 E.0672
G3 X107.645 Y91.903 I-2.504 J1.057 E.10039
G3 X104.25 Y92.227 I-1.899 J-1.939 E.11562
G3 X103.216 Y89.107 I1.547 J-2.244 E.11062
G3 X104.197 Y87.819 I2.62 J.977 E.0515
M204 P1000
G1 X104.469 Y88.112 F9000
M204 P600
;TYPE:External perimeter
G1 F1200
G1 X104.8 Y87.896 E.01239
G3 X107.383 Y88.366 I.943 J2.146 E.08737
G3 X107.885 Y89.123 I-2.228 J2.026 E.02859
G3 X108.006 Y90.498 I-2.313 J.895 E.04386
G3 X107.561 Y91.42 I-2.598 J-.685 E.0323
G3 X106.741 Y92.086 I-2.196 J-1.867 E.03331
G3 X104.483 Y91.931 I-.987 J-2.15 E.074
G3 X103.483 Y90.415 I1.366 J-1.989 E.05838
G3 X103.795 Y88.769 I2.332 J-.41 E.05369
G1 X104.218 Y88.276 E.02037
G1 X104.419 Y88.145 E.00752
M204 P1000
G1 E-2.24 F4200
;WIPE_START
G1 F7200
G1 X104.469 Y88.112 E-.0332
G1 X104.8 Y87.896 E-.21903
G3 X106.049 Y87.718 I.943 J2.146 E-.70777
;WIPE_END
G1 Z.4 F720
G1 X89.908 Y103.078 F9000
G1 Z.2 F720
G1 E3.2 F2400
M204 P600
;TYPE:Perimeter
G1 F1200
G3 X90.416 Y103.102 I.105 J3.241 E.01596
G3 X92.464 Y104.678 I-.45 J2.703 E.08437
G3 X92.488 Y106.755 I-2.585 J1.068 E.06673
G3 X91.058 Y108.218 I-2.563 J-1.074 E.06569
G3 X89.615 Y108.405 I-1.08 J-2.665 E.04612
G3 X88.089 Y107.635 I.474 J-2.834 E.05442
G3 X87.361 Y106.249 I2.083 J-1.977 E.04972
G3 X87.49 Y104.803 I2.831 J-.478 E.04602
G3 X89.295 Y103.157 I2.551 J.985 E.0794
G3 X89.848 Y103.081 I.718 J3.162 E.01752
M204 P1000
G1 X89.921 Y103.453 F9000
M204 P600
;TYPE:External perimeter
G1 F1200
G3 X90.426 Y103.481 I.097 J2.823 E.01588
G3 X92.272 Y105.33 I-.456 J2.3 E.08689
G3 X91.901 Y107.061 I-2.392 J.393 E.05682
G3 X90.935 Y107.862 I-2.168 J-1.633 E.03971
G3 X89.122 Y107.881 I-.93 J-2.196 E.05831
G3 X88.05 Y106.988 I.974 J-2.257 E.04436
G3 X89.396 Y103.52 I1.978 J-1.228 E.13514
G3 X89.861 Y103.455 I.622 J2.756 E.01474
M204 P1000
G1 E-2.24 F4200
;WIPE_START
G1 F7200
G1 X89.921 Y103.453 E-.03327
G3 X90.426 Y103.481 I.097 J2.824 E-.28066
G3 X91.468 Y103.977 I-.456 J2.301 E-.64607
;WIPE_END
G1 Z.4 F720
G1 X73.466 Y87.448 F9000
G1 Z.2 F720
G1 E3.2 F2400
M204 P600
;TYPE:Perimeter
G1 F1200
G3 X73.745 Y87.362 I1.383 J3.998 E.00916
G1 X73.751 Y87.362 E.00019
G3 X76.837 Y89.275 I.481 J2.669 E.12472
G1 X76.933 Y89.953 E.02147
G3 X76.496 Y91.467 I-2.913 J-.019 E.05003
G3 X75.285 Y92.475 I-2.359 J-1.603 E.05005
G3 X73.25 Y92.493 I-1.04 J-2.572 E.06533
G3 X71.778 Y91.046 I1.114 J-2.605 E.06624
G3 X72.764 Y87.765 I2.499 J-1.038 E.11631
G3 X73.409 Y87.468 I2.085 J3.681 E.02229
M204 P1000
G1 X73.574 Y87.8 F9000
M204 P600
;TYPE:External perimeter
G1 F1200
G3 X73.792 Y87.736 I.864 J2.545 E.00713
G1 X73.794 Y87.736 E.00006
G3 X75.041 Y87.83 I.442 J2.453 E.03963
G3 X75.816 Y88.304 I-1.165 J2.776 E.02859
G3 X76.513 Y90.46 I-1.659 J1.727 E.074
G3 X76.16 Y91.297 I-3.158 J-.841 E.02857
G3 X74.654 Y92.274 I-1.969 J-1.386 E.05768
G3 X71.983 Y90.445 I-.387 J-2.3 E.11218
G3 X72.601 Y88.383 I2.327 J-.426 E.07007
G3 X73.517 Y87.82 I1.837 J1.962 E.03394
M204 P1000
G1 E-2.24 F4200
;WIPE_START
G1 F7200
G1 X73.574 Y87.8 E-.03348
G3 X73.792 Y87.736 I.865 J2.544 E-.12594
G1 X73.794 Y87.736 E-.00111
G3 X75.041 Y87.83 I.442 J2.453 E-.70049
G3 X75.204 Y87.904 I-1.165 J2.777 E-.09898
;WIPE_END
G1 Z.4 F720
G1 X80.951 Y73.051 F9000
G1 Z.2 F720
G1 E3.2 F2400
M204 P600
;TYPE:Perimeter
G1 F1200
G3 X109.021 Y87.294 I9.051 J16.946 E1.15661
G3 X109.196 Y89.195 I-27.198 J3.453 E.05987
G3 X80.898 Y73.08 I-19.194 J.802 E2.5662
M204 P1000
G1 X80.77 Y72.718 F9000
M204 P600
;TYPE:External perimeter
G1 F1200
G3 X109.395 Y87.243 I9.231 J17.276 E1.17957
G3 X109.573 Y89.19 I-27.453 J3.487 E.06131
G3 X80.717 Y72.746 I-19.572 J.804 E2.61607
M73 P0 R89
M73 Q0 S89
M204 P1000
G1 E-2.24 F4200
;WIPE_START
G1 F7200
G1 X80.77 Y72.718 E-.03322
G3 X82.277 Y71.994 I9.231 J17.276 E-.92678
;WIPE_END
G1 Z.4 F720
G1 X101.561 Y74.846 F9000
G1 Z.2 F720
G1 E3.2 F2400
M204 P600
;TYPE:Solid infill
;WIDTH:0.420724
G1 F1200
G3 X104.203 Y77.543 I-50.39 J51.994 E.11862
G3 X105.745 Y79.564 I-15.239 J13.228 E.07991
G1 X100.44 Y74.259 E.23568
G2 X99.086 Y73.439 I-11.209 J16.987 E.04974
G1 X106.556 Y80.909 E.33187
G1 X107.115 Y82.002 E.03857
G1 X98.01 Y72.897 E.40451
G1 X97.059 Y72.481 E.03261
G1 X107.525 Y82.946 E.46495
G1 X107.839 Y83.795 E.02844
G1 X96.21 Y72.165 E.51666
G1 X95.413 Y71.903 E.02636
G1 X108.097 Y84.587 E.56351
G1 X108.295 Y85.32 E.02385
G1 X94.675 Y71.699 E.60512
G1 X93.978 Y71.536 E.02249
G1 X108.465 Y86.024 E.64363
G1 X108.597 Y86.69 E.02133
G1 X93.312 Y71.405 E.67906
G1 X92.678 Y71.305 E.02016
M73 P1 R89
M73 Q1 S89
G1 X108.702 Y87.329 E.7119
G1 X108.771 Y87.932 E.01907
G1 X92.063 Y71.224 E.74228
G1 X91.474 Y71.17 E.01858
G1 X108.832 Y88.528 E.77116
G1 X108.869 Y89.099 E.01798
G1 X90.726 Y70.956 E.80604
M204 P1000
G1 X90.754 Y71.518 F9000
M204 P600
G1 F1200
G1 X90.347 Y71.111 E.01808
G1 X89.814 Y71.113 E.01674
G1 X89.95 Y71.248 E.00602
G2 X89.476 Y71.308 I-.025 J1.699 E.01506
G1 X89.294 Y71.126 E.00809
G1 X88.786 Y71.153 E.01598
G1 X89.04 Y71.407 E.01128
G1 X88.662 Y71.563 E.01285
G1 X88.287 Y71.189 E.01664
G1 X87.803 Y71.238 E.01528
G1 X88.325 Y71.761 E.02321
G1 X88.027 Y71.997 E.01194
G1 X87.334 Y71.304 E.03079
G1 X86.87 Y71.375 E.01475
G1 X87.761 Y72.265 E.03956
G1 X87.52 Y72.558 E.01192
G1 X86.416 Y71.454 E.04905
G1 X85.972 Y71.545 E.01424
G1 X87.321 Y72.894 E.05993
G1 X87.166 Y73.273 E.01286
G1 X85.539 Y71.646 E.07228
G1 X85.111 Y71.752 E.01385
G1 X87.057 Y73.699 E.08648
G2 X87.007 Y74.183 I1.581 J.407 E.01534
G1 X84.698 Y71.874 E.10258
G1 X84.288 Y71.998 E.01346
G1 X87.261 Y74.971 E.13208
M204 P1000
G1 E-2.24 F4200
;WIPE_START
G1 F7200
G1 X86.036 Y73.746 E-.96
;WIPE_END
G1 Z.4 F720
G1 X92.725 Y73.489 F9000
G1 Z.2 F720
G1 E3.2 F2400
M204 P600
G1 F1200
G1 X106.288 Y87.052 E.60256
G2 X105.708 Y87.006 I-.458 J2.105 E.01833
G1 X92.998 Y74.297 E.56464
G3 X92.939 Y74.771 I-1.434 J.061 E.01508
G1 X105.221 Y87.053 E.54565
G2 X104.795 Y87.162 I.148 J1.472 E.01387
G1 X92.844 Y75.211 E.53095
G1 X92.686 Y75.587 E.01281
G1 X104.414 Y87.316 E.52106
G1 X104.083 Y87.519 E.0122
G1 X92.479 Y75.915 E.51553
G1 X92.256 Y76.226 E.01202
G1 X103.775 Y87.745 E.51175
G1 X103.502 Y88.006 E.01186
G1 X91.986 Y76.491 E.5116
G3 X91.691 Y76.729 I-1.082 J-1.037 E.01194
G1 X103.271 Y88.309 E.51446
G2 X103.08 Y88.653 I1.133 J.853 E.0124
G1 X91.358 Y76.931 E.52077
G1 X90.968 Y77.075 E.01306
G1 X102.909 Y89.016 E.5305
G1 X102.803 Y89.444 E.01385
G1 X90.554 Y77.195 E.54418
G1 X90.078 Y77.253 E.01506
G1 X102.756 Y89.931 E.56324
G2 X102.794 Y90.504 I2.041 J.153 E.0181
G1 X89.265 Y76.975 E.60105
M204 P1000
G1 E-2.24 F4200
;WIPE_START
G1 F7200
G1 X90.49 Y78.2 E-.96
;WIPE_END
G1 Z.4 F720
G1 X109.054 Y89.818 F9000
G1 Z.2 F720
G1 E3.2 F2400
M204 P600
G1 F1200
G1 X108.698 Y89.462 E.01582
G3 X108.75 Y90.048 I-2.996 J.559 E.01851
G1 X108.889 Y90.187 E.00618
G1 X108.875 Y90.707 E.01634
G1 X108.7 Y90.533 E.00775
G3 X108.591 Y90.958 I-1.663 J-.202 E.01382
G1 X108.849 Y91.216 E.01146
G1 X108.807 Y91.709 E.01554
G1 X108.431 Y91.332 E.01673
G3 X108.238 Y91.674 I-1.533 J-.638 E.01237
G1 X108.763 Y92.198 E.0233
G1 X108.699 Y92.669 E.01493
G1 X108.007 Y91.977 E.03074
G1 X107.736 Y92.24 E.01186
G1 X108.626 Y93.13 E.03954
G1 X108.542 Y93.581 E.01441
G1 X107.436 Y92.475 E.04914
G1 X107.101 Y92.674 E.01224
G1 X108.456 Y94.029 E.0602
G1 X108.354 Y94.461 E.01394
G1 X106.723 Y92.83 E.07246
G3 X106.305 Y92.946 I-.642 J-1.499 E.01367
G1 X108.245 Y94.887 E.08621
G1 X108.125 Y95.301 E.01354
G1 X105.83 Y93.006 E.10196
G3 X105.245 Y92.955 I-.082 J-2.438 E.01849
G1 X108.005 Y95.715 E.12262
G1 X107.871 Y96.115 E.01325
G1 X104.455 Y92.699 E.15176
G3 X103.385 Y91.859 I1.264 J-2.709 E.04311
G1 X103.043 Y91.287 E.02094
G1 X88.701 Y76.945 E.63717
G3 X87.3 Y75.544 I1.159 J-2.559 E.06361
G1 X83.884 Y72.128 E.15176
G1 X83.49 Y72.269 E.01315
G1 X107.734 Y96.512 E1.07706
G1 X107.582 Y96.894 E.01292
G1 X83.104 Y72.416 E1.08748
G1 X82.725 Y72.573 E.01289
G1 X107.429 Y97.276 E1.0975
G1 X107.27 Y97.652 E.01282
G1 X82.347 Y72.729 E1.10725
G1 X81.982 Y72.898 E.01264
G1 X107.102 Y98.018 E1.116
G1 X106.928 Y98.379 E.01259
G1 X81.619 Y73.069 E1.12442
G1 X81.269 Y73.254 E.01244
G1 X106.746 Y98.73 E1.13184
G1 X106.563 Y99.081 E.01244
G1 X80.921 Y73.44 E1.13917
G1 X80.575 Y73.628 E.01237
G1 X106.37 Y99.423 E1.14599
G1 X106.173 Y99.76 E.01226
G1 X80.241 Y73.828 E1.15208
G1 X79.909 Y74.03 E.01221
G1 X105.967 Y100.088 E1.15768
G1 X105.756 Y100.411 E.01212
G1 X79.589 Y74.244 E1.16252
G1 X79.268 Y74.459 E.01214
G1 X91.594 Y86.785 E.54761
G3 X92.525 Y87.422 I-1.516 J3.211 E.03559
G3 X93.224 Y88.414 I-2.699 J2.644 E.03829
G1 X105.544 Y100.734 E.54734
G1 X105.321 Y101.046 E.01205
G1 X93.526 Y89.25 E.52404
G1 X93.591 Y89.85 E.01896
G1 X105.097 Y101.355 E.51115
G1 X104.861 Y101.654 E.01197
G1 X93.572 Y90.366 E.50151
G3 X93.502 Y90.829 I-1.822 J-.041 E.01475
M73 P1 R88
M73 Q1 S88
G1 X104.623 Y101.95 E.49407
G1 X104.385 Y102.246 E.01193
G1 X93.376 Y91.237 E.4891
G3 X93.212 Y91.608 I-1.221 J-.316 E.0128
G1 X104.134 Y102.53 E.48523
G1 X103.882 Y102.812 E.01188
G1 X93.024 Y91.954 E.48239
G3 X92.793 Y92.257 I-1.285 J-.741 E.012
G1 X103.621 Y103.085 E.48105
G1 X103.358 Y103.357 E.01189
M73 P2 R88
M73 Q2 S88
G1 X92.548 Y92.547 E.48025
G1 X92.258 Y92.791 E.01191
G1 X103.085 Y103.618 E.48101
G1 X102.809 Y103.877 E.01189
G1 X91.96 Y93.028 E.48199
G1 X91.608 Y93.21 E.01245
G1 X102.533 Y104.135 E.48536
G1 X102.245 Y104.381 E.0119
G1 X91.244 Y93.38 E.48874
G1 X90.827 Y93.498 E.01361
G1 X101.956 Y104.626 E.4944
G1 X101.656 Y104.86 E.01195
G1 X90.364 Y93.569 E.50165
G1 X89.861 Y93.599 E.01583
G1 X101.353 Y105.092 E.51058
G1 X101.05 Y105.323 E.01197
G1 X89.006 Y93.279 E.53508
M204 P1000
G1 E-2.24 F4200
;WIPE_START
G1 F7200
G1 X90.231 Y94.504 E-.96
;WIPE_END
G1 Z.4 F720
G1 X91.003 Y86.727 F9000
G1 Z.2 F720
G1 E3.2 F2400
M204 P600
G1 F1200
G1 X78.953 Y74.677 E.53534
G1 X78.646 Y74.905 E.01201
G1 X90.153 Y86.412 E.51122
G2 X89.634 Y86.427 I-.214 J1.571 E.01638
G1 X78.343 Y75.136 E.50162
G1 X78.05 Y75.377 E.01192
G1 X89.168 Y86.495 E.49394
G1 X88.772 Y86.634 E.01318
G1 X77.757 Y75.618 E.48938
G1 X77.589 Y75.756 E.00683
G1 X77.469 Y75.865 E.00509
G1 X88.382 Y86.778 E.48483
G1 X88.052 Y86.982 E.01219
G1 X77.189 Y76.12 E.48259
G1 X76.913 Y76.378 E.01187
G1 X87.738 Y87.202 E.4809
G1 X87.46 Y87.459 E.01189
G1 X76.645 Y76.643 E.4805
G1 X76.379 Y76.912 E.01188
G1 X87.205 Y87.738 E.48097
G1 X86.983 Y88.05 E.01203
G1 X76.123 Y77.191 E.48245
G1 X75.868 Y77.47 E.01187
G1 X86.788 Y88.39 E.48514
G1 X86.629 Y88.765 E.0128
G1 X75.618 Y77.754 E.48918
G1 X75.376 Y78.046 E.01191
G1 X86.501 Y89.171 E.49425
G2 X86.42 Y89.624 I2.2 J.628 E.01448
G1 X75.137 Y78.342 E.50125
G1 X74.909 Y78.648 E.01199
G1 X86.403 Y90.142 E.51064
G1 X86.491 Y90.764 E.01973
G1 X74.68 Y78.953 E.52473
G1 X74.459 Y79.266 E.01204
G1 X86.763 Y91.587 E.54701
G2 X87.252 Y92.331 I5.167 J-2.864 E.028
G1 X87.799 Y92.86 E.0239
G1 X88.439 Y93.247 E.0235
G1 X100.734 Y105.541 E.54621
G1 X100.418 Y105.759 E.01206
G1 X74.246 Y79.587 E1.16274
G1 X74.032 Y79.908 E.01212
G1 X100.089 Y105.965 E1.15763
G1 X99.759 Y106.169 E.01219
G1 X73.829 Y80.239 E1.15199
G1 X73.63 Y80.574 E.01224
G1 X99.426 Y106.371 E1.14606
G1 X99.082 Y106.561 E.01235
G1 X73.44 Y80.919 E1.13919
G1 X73.255 Y81.268 E.01241
G1 X98.736 Y106.749 E1.13204
G1 X98.377 Y106.925 E.01256
G1 X73.07 Y81.617 E1.12433
G1 X72.899 Y81.981 E.01263
G1 X98.019 Y107.1 E1.11598
G1 X97.653 Y107.269 E.01266
G1 X72.729 Y82.345 E1.1073
G1 X72.571 Y82.721 E.01281
